X:6
T:Moonchild
C:Iron Maiden
D:7th son of a 7th son
O:England
Z:<anamnese@laposte.net> -- http://anamnese.fr.st
M:3/4
L:1/8
Q:1/4=120
K:G
"Em" BABc HB2 | "D" AGAB HA2 | "Am" EE EE EE |
"Cmaj7" B4 BB | "Em" GE HE4 || "Em" BABc HB2 | 
"D" AGAB HA2 | "Am3 EE EE EE | "Cmaj7" B6 | "D3 BEED (A2 |
"E(no 3rd)" HA6 |
W:Seven deadly sins
W:Seven ways to win
W:Seven holy paths to hell
W:and your trip begins.
W:Seven downward slopes
W:Seven bloodied hopes
W:Seven are your burning fires
W:Seven your desires
